;FLAVOR:Marlin
;TIME:3021
;Filament used: 1.7145m
;Layer height: 0.2
;MINX:64.881
;MINY:59.584
;MINZ:0.2
;MAXX:122.052
;MAXY:124.322
;MAXZ:10
;Generated with Cura_SteamEngine 4.8.0
M140 S60
M105
M190 S60
M104 S200
M105
M109 S200
M82 ;absolute extrusion mode
; Ender 3 Custom Start G-code
G92 E0 ; Reset Extruder
G28 ; Home all axes
G1 Z2.0 F3000 ; Move Z Axis up little to prevent scratching of Heat Bed
G1 X0.1 Y20 Z0.3 F5000.0 ; Move to start position
;G1 X0.1 Y200.0 Z0.3 F1500.0 E15 ; Draw the first line
;G1 X0.4 Y200.0 Z0.3 F5000.0 ; Move to side a little
;G1 X0.4 Y20 Z0.3 F1500.0 E30 ; Draw the second line
G92 E0 ; Reset Extruder
G1 Z2.0 F3000 ; Move Z Axis up little to prevent scratching of Heat Bed
G1 X5 Y20 Z0.3 F5000.0 ; Move over to prevent blob squish
G92 E0
G92 E0
G1 F2700 E-5
;LAYER_COUNT:50
;LAYER:0
M107
G0 F6000 X68.144 Y63.9 Z0.2
;TYPE:SKIRT
G1 F2700 E0
G1 F1200 X68.785 Y63.215 E0.0312
G1 X69.482 Y62.587 E0.06241
G1 X70.283 Y61.985 E0.09573
G1 X70.64 Y61.741 E0.11012
G1 X71.005 Y61.501 E0.12464
G1 X71.818 Y61.033 E0.15585
G1 X72.667 Y60.636 E0.18702
G1 X73.309 Y60.391 E0.20987
G1 X73.532 Y60.314 E0.21772
G1 X73.968 Y60.172 E0.23297
G1 X74.873 Y59.924 E0.26418
G1 X75.84 Y59.749 E0.29687
G1 X75.98 Y59.73 E0.30157
G1 X76.416 Y59.68 E0.31616
G1 X76.668 Y59.656 E0.32458
G1 X77.341 Y59.612 E0.34701
G1 X77.697 Y59.603 E0.35886
G1 X78.318 Y59.596 E0.37951
G1 X97.288 Y59.584 E1.01046
G1 X98.149 Y59.595 E1.0391
G1 X99.085 Y59.649 E1.07028
G1 X100.014 Y59.782 E1.10149
G1 X100.927 Y59.993 E1.13266
G1 X101.82 Y60.282 E1.16388
G1 X102.684 Y60.645 E1.19505
G1 X103.515 Y61.081 E1.22626
G1 X104.305 Y61.587 E1.25747
G1 X105.049 Y62.157 E1.28864
G1 X105.742 Y62.789 E1.31983
G1 X106.379 Y63.478 E1.35104
G1 X106.955 Y64.218 E1.38223
G1 X107.465 Y65.005 E1.41342
G1 X107.876 Y65.768 E1.44225
G1 X108.415 Y66.872 E1.48311
G1 X109.566 Y69.148 E1.56794
G1 X110.778 Y71.384 E1.65253
G1 X112.03 Y73.544 E1.73557
G1 X113.361 Y75.699 E1.81981
G1 X114.753 Y77.816 E1.90408
G1 X116.188 Y79.868 E1.98737
G1 X116.456 Y80.234 E2.00245
G1 X116.939 Y80.908 E2.03003
G1 X117.504 Y81.78 E2.06459
G1 X117.812 Y82.309 E2.08495
G1 X118.249 Y83.139 E2.11615
G1 X118.614 Y84.003 E2.14735
G1 X118.781 Y84.486 E2.16434
G1 X118.848 Y84.695 E2.17164
G1 X119.098 Y85.607 E2.2031
G1 X119.111 Y85.664 E2.20504
G1 X119.288 Y86.645 E2.2382
G1 X119.445 Y87.813 E2.27739
G1 X119.471 Y88.024 E2.28446
G1 X121.925 Y109.412 E3.0005
G1 X121.999 Y110.153 E3.02527
G1 X122.052 Y111.394 E3.06658
G1 X122.047 Y111.766 E3.07895
G1 X121.994 Y112.702 E3.11014
G1 X121.864 Y113.621 E3.14101
G1 X121.819 Y113.864 E3.14923
G1 X121.75 Y114.205 E3.1608
G1 X121.709 Y114.393 E3.1672
G1 X121.471 Y115.3 E3.19839
G1 X121.156 Y116.183 E3.22957
G1 X120.908 Y116.748 E3.25009
G1 X120.711 Y117.165 E3.26543
G1 X120.275 Y117.995 E3.29661
G1 X119.769 Y118.785 E3.32781
G1 X119.109 Y119.634 E3.36358
G1 X118.792 Y120.003 E3.37976
G1 X118.151 Y120.688 E3.41096
G1 X117.454 Y121.315 E3.44215
G1 X116.636 Y121.93 E3.47618
G1 X116.223 Y122.211 E3.4928
G1 X115.426 Y122.705 E3.52399
G1 X114.589 Y123.129 E3.55519
G1 X113.659 Y123.502 E3.58852
G1 X113.381 Y123.599 E3.59831
G1 X112.993 Y123.726 E3.61189
G1 X112.088 Y123.97 E3.64307
G1 X111.099 Y124.145 E3.67647
G1 X110.599 Y124.21 E3.69324
G1 X109.598 Y124.294 E3.72665
G1 X109.235 Y124.304 E3.73873
G1 X108.614 Y124.311 E3.75939
G1 X89.48 Y124.322 E4.39579
G1 X88.784 Y124.312 E4.41894
G1 X87.848 Y124.258 E4.45012
G1 X86.919 Y124.125 E4.48133
G1 X86.006 Y123.914 E4.5125
G1 X85.113 Y123.625 E4.54372
G1 X84.249 Y123.262 E4.57489
G1 X83.418 Y122.826 E4.6061
G1 X82.628 Y122.32 E4.63731
G1 X81.884 Y121.75 E4.66848
G1 X81.191 Y121.118 E4.69967
G1 X80.554 Y120.429 E4.73088
G1 X79.978 Y119.689 E4.76207
G1 X79.468 Y118.902 E4.79326
G1 X79.058 Y118.141 E4.82201
G1 X78.541 Y117.082 E4.86121
G1 X77.363 Y114.752 E4.94805
G1 X76.168 Y112.548 E5.03143
G1 X74.909 Y110.375 E5.11496
G1 X73.583 Y108.229 E5.19887
G1 X72.194 Y106.116 E5.28297
G1 X70.764 Y104.07 E5.36599
G1 X70.597 Y103.843 E5.37537
G1 X69.918 Y102.896 E5.41412
G1 X69.373 Y102.057 E5.4474
G1 X69.299 Y101.931 E5.45226
G1 X69.108 Y101.591 E5.46523
G1 X68.955 Y101.308 E5.47593
G1 X68.544 Y100.465 E5.50712
G1 X68.163 Y99.457 E5.54296
G1 X68.091 Y99.234 E5.55076
G1 X67.825 Y98.26 E5.58434
G1 X67.812 Y98.202 E5.58632
G1 X67.644 Y97.263 E5.61804
G1 X67.487 Y96.096 E5.65721
G1 X67.461 Y95.883 E5.66435
G1 X65.008 Y74.504 E6.38008
G1 X64.935 Y73.779 E6.40431
G1 X64.881 Y72.559 E6.44493
G1 X64.885 Y72.186 E6.45734
G1 X64.935 Y71.25 E6.48851
G1 X65.068 Y70.301 E6.52039
G1 X65.128 Y69.977 E6.53135
G1 X65.211 Y69.569 E6.54519
G1 X65.242 Y69.431 E6.5499
G1 X65.487 Y68.526 E6.58108
G1 X65.807 Y67.644 E6.61229
G1 X66.039 Y67.122 E6.63129
G1 X66.21 Y66.762 E6.64454
G1 X66.475 Y66.24 E6.66402
G1 X66.954 Y65.433 E6.69523
G1 X67.499 Y64.67 E6.72641
G1 X67.822 Y64.275 E6.74339
G1 X68.144 Y63.9 E6.75983
G0 F6000 X68.448 Y64.161
G1 F1200 X69.077 Y63.489 E6.79044
G1 X69.763 Y62.874 E6.82108
G1 X70.509 Y62.315 E6.85209
G1 X70.866 Y62.071 E6.86647
G1 X71.219 Y61.839 E6.88052
G1 X72.017 Y61.38 E6.91114
G1 X72.852 Y60.992 E6.94176
G1 X73.439 Y60.769 E6.96265
G1 X73.893 Y60.616 E6.97858
G1 X74.09 Y60.553 E6.98546
G1 X74.978 Y60.311 E7.01607
G1 X75.893 Y60.145 E7.047
G1 X76.033 Y60.126 E7.0517
G1 X76.454 Y60.078 E7.0658
G1 X76.706 Y60.054 E7.07422
G1 X77.355 Y60.012 E7.09585
G1 X77.702 Y60.003 E7.10739
G1 X78.318 Y59.996 E7.12788
G1 X97.288 Y59.984 E7.75883
G1 X98.143 Y59.995 E7.78727
G1 X99.062 Y60.048 E7.81788
G1 X99.973 Y60.181 E7.8485
G1 X100.87 Y60.392 E7.87915
G1 X101.744 Y60.681 E7.90977
G1 X102.59 Y61.044 E7.94039
G1 X103.401 Y61.479 E7.971
G1 X104.172 Y61.983 E8.00163
G1 X104.896 Y62.551 E8.03224
G1 X105.568 Y63.181 E8.06288
G1 X106.182 Y63.866 E8.09347
G1 X106.735 Y64.602 E8.12409
G1 X107.222 Y65.384 E8.15473
G1 X107.516 Y65.943 E8.17574
G1 X108.056 Y67.049 E8.21668
G1 X109.215 Y69.34 E8.30207
G1 X110.415 Y71.554 E8.38583
G1 X111.697 Y73.765 E8.47084
G1 X113.035 Y75.933 E8.55557
G1 X114.407 Y78.019 E8.63861
G1 X115.858 Y80.095 E8.72286
G1 X116.131 Y80.467 E8.7382
G1 X116.614 Y81.141 E8.76578
G1 X117.158 Y81.982 E8.7991
G1 X117.466 Y82.511 E8.81945
G1 X117.895 Y83.325 E8.85006
G1 X118.4 Y84.608 E8.89592
G1 X118.467 Y84.817 E8.90322
G1 X118.708 Y85.696 E8.93353
G1 X118.721 Y85.753 E8.93548
G1 X118.892 Y86.698 E8.96742
G1 X119.049 Y87.866 E9.00662
G1 X119.074 Y88.069 E9.01342
G1 X121.527 Y109.452 E9.72928
G1 X121.601 Y110.193 E9.75405
G1 X121.652 Y111.388 E9.79383
G1 X121.647 Y111.76 E9.80621
G1 X121.595 Y112.68 E9.83686
G1 X121.471 Y113.548 E9.86602
G1 X121.426 Y113.791 E9.87424
G1 X121.36 Y114.12 E9.8854
G1 X121.319 Y114.308 E9.8918
G1 X121.084 Y115.198 E9.92242
G1 X120.772 Y116.064 E9.95303
G1 X120.546 Y116.577 E9.97168
G1 X120.349 Y116.994 E9.98702
G1 X119.92 Y117.808 E10.01762
G1 X119.422 Y118.583 E10.04826
G1 X118.805 Y119.373 E10.0816
G1 X118.488 Y119.742 E10.09778
G1 X117.859 Y120.414 E10.12839
G1 X117.173 Y121.028 E10.15901
G1 X116.411 Y121.599 E10.19068
G1 X115.998 Y121.88 E10.2073
G1 X115.215 Y122.364 E10.23791
G1 X114.393 Y122.779 E10.26854
G1 X113.527 Y123.124 E10.29955
G1 X113.249 Y123.221 E10.30934
G1 X112.873 Y123.345 E10.32251
G1 X111.984 Y123.584 E10.35313
G1 X111.048 Y123.749 E10.38474
G1 X110.548 Y123.814 E10.40151
G1 X109.583 Y123.894 E10.43371
G1 X109.23 Y123.904 E10.44546
G1 X108.614 Y123.911 E10.46595
G1 X89.486 Y123.922 E11.10215
G1 X88.79 Y123.912 E11.1253
G1 X87.871 Y123.859 E11.15592
G1 X86.96 Y123.726 E11.18654
G1 X86.063 Y123.515 E11.21719
G1 X85.189 Y123.226 E11.2478
G1 X84.343 Y122.863 E11.27842
G1 X83.532 Y122.428 E11.30903
G1 X82.761 Y121.924 E11.33967
G1 X82.037 Y121.356 E11.37027
G1 X81.365 Y120.726 E11.40091
G1 X80.751 Y120.041 E11.43151
G1 X80.198 Y119.305 E11.46213
G1 X79.711 Y118.523 E11.49277
G1 X79.418 Y117.966 E11.5137
G1 X78.9 Y116.905 E11.55297
G1 X77.721 Y114.574 E11.63985
G1 X76.514 Y112.348 E11.72407
G1 X75.261 Y110.185 E11.80721
G1 X73.925 Y108.021 E11.8918
G1 X72.513 Y105.873 E11.9773
G1 X71.086 Y103.831 E12.06015
G1 X70.923 Y103.61 E12.06929
G1 X70.244 Y102.663 E12.10805
G1 X69.718 Y101.854 E12.14014
G1 X69.644 Y101.728 E12.145
G1 X69.459 Y101.401 E12.1575
G1 X69.306 Y101.118 E12.1682
G1 X68.904 Y100.29 E12.19881
G1 X68.544 Y99.334 E12.23279
G1 X68.472 Y99.111 E12.24058
G1 X68.216 Y98.172 E12.27295
G1 X68.203 Y98.114 E12.27493
G1 X68.041 Y97.209 E12.30551
G1 X67.858 Y95.838 E12.35151
G1 X65.406 Y74.464 E13.06708
G1 X65.333 Y73.739 E13.09131
G1 X65.281 Y72.563 E13.13046
G1 X65.285 Y72.19 E13.14287
G1 X65.334 Y71.271 E13.17348
G1 X65.461 Y70.374 E13.20361
G1 X65.521 Y70.05 E13.21457
G1 X65.602 Y69.657 E13.22792
G1 X65.633 Y69.519 E13.23262
G1 X65.873 Y68.63 E13.26325
G1 X66.19 Y67.766 E13.29386
G1 X66.4 Y67.294 E13.31104
G1 X66.571 Y66.934 E13.3243
G1 X66.828 Y66.429 E13.34314
G1 X67.298 Y65.638 E13.37375
G1 X68.126 Y64.536 E13.41959
G1 X68.448 Y64.161 E13.43603
G0 F6000 X68.751 Y64.421
G1 F1200 X69.37 Y63.763 E13.46608
G1 X70.043 Y63.161 E13.49611
G1 X70.734 Y62.645 E13.52479
G1 X71.091 Y62.401 E13.53918
G1 X71.434 Y62.177 E13.5528
G1 X72.217 Y61.727 E13.58284
G1 X73.037 Y61.349 E13.61287
G1 X73.57 Y61.148 E13.63182
G1 X74.015 Y60.997 E13.64745
G1 X74.212 Y60.934 E13.65433
G1 X75.084 Y60.697 E13.68438
G1 X75.947 Y60.542 E13.71354
G1 X76.087 Y60.523 E13.71824
G1 X76.492 Y60.476 E13.7318
G1 X76.744 Y60.452 E13.74022
G1 X77.368 Y60.412 E13.76102
G1 X77.706 Y60.403 E13.77227
G1 X78.319 Y60.396 E13.79266
G1 X97.289 Y60.384 E14.4236
G1 X98.138 Y60.395 E14.45184
G1 X99.039 Y60.448 E14.48186
G1 X99.932 Y60.58 E14.51188
G1 X100.811 Y60.791 E14.54195
G1 X101.667 Y61.079 E14.57199
G1 X102.494 Y61.442 E14.60203
G1 X103.286 Y61.876 E14.63207
G1 X104.036 Y62.378 E14.66208
G1 X104.739 Y62.945 E14.69212
G1 X105.389 Y63.572 E14.72216
G1 X105.981 Y64.254 E14.7522
G1 X106.511 Y64.986 E14.78226
G1 X107.157 Y66.119 E14.82563
G1 X107.698 Y67.226 E14.86662
G1 X108.864 Y69.532 E14.95256
G1 X110.069 Y71.754 E15.03663
G1 X111.359 Y73.98 E15.1222
G1 X112.678 Y76.116 E15.2057
G1 X114.073 Y78.238 E15.29016
G1 X115.56 Y80.366 E15.37651
G1 X115.806 Y80.7 E15.39031
G1 X116.289 Y81.374 E15.41788
G1 X116.813 Y82.183 E15.44994
G1 X117.121 Y82.712 E15.4703
G1 X117.54 Y83.512 E15.50034
G1 X118.019 Y84.73 E15.54387
G1 X118.086 Y84.939 E15.55117
G1 X118.318 Y85.785 E15.58035
G1 X118.331 Y85.842 E15.58229
G1 X118.495 Y86.751 E15.61301
G1 X118.652 Y87.919 E15.65221
G1 X118.676 Y88.115 E15.65878
G1 X121.129 Y109.491 E16.37441
G1 X121.203 Y110.232 E16.39918
G1 X121.252 Y111.383 E16.4375
G1 X121.247 Y111.755 E16.44987
G1 X121.195 Y112.657 E16.47992
G1 X121.077 Y113.475 E16.50741
G1 X121.032 Y113.718 E16.51563
G1 X120.969 Y114.034 E16.52635
G1 X120.928 Y114.222 E16.53275
G1 X120.696 Y115.095 E16.56279
G1 X120.389 Y115.944 E16.59282
G1 X120.185 Y116.406 E16.60962
G1 X119.988 Y116.823 E16.62496
G1 X119.566 Y117.622 E16.65501
G1 X119.076 Y118.38 E16.68503
G1 X118.502 Y119.113 E16.71599
G1 X118.185 Y119.482 E16.73217
G1 X117.567 Y120.14 E16.7622
G1 X116.893 Y120.741 E16.79223
G1 X116.186 Y121.268 E16.82156
G1 X115.773 Y121.549 E16.83818
G1 X115.004 Y122.024 E16.86824
G1 X114.197 Y122.428 E16.89826
G1 X113.395 Y122.747 E16.92696
G1 X113.117 Y122.844 E16.93676
G1 X112.753 Y122.964 E16.9495
G1 X111.88 Y123.197 E16.97956
G1 X110.996 Y123.352 E17.00941
G1 X110.496 Y123.417 E17.02618
G1 X109.568 Y123.495 E17.05715
G1 X109.226 Y123.504 E17.06853
G1 X108.613 Y123.511 E17.08892
G1 X89.491 Y123.522 E17.72492
G1 X88.795 Y123.512 E17.74807
G1 X87.894 Y123.459 E17.77809
G1 X87.001 Y123.327 E17.80812
G1 X86.122 Y123.116 E17.83818
G1 X85.266 Y122.828 E17.86822
G1 X84.439 Y122.465 E17.89826
G1 X83.647 Y122.031 E17.9283
G1 X82.897 Y121.529 E17.95832
G1 X82.194 Y120.962 E17.98835
G1 X81.544 Y120.335 E18.01839
G1 X80.952 Y119.653 E18.04843
G1 X80.422 Y118.921 E18.07849
G1 X79.777 Y117.79 E18.12179
G1 X79.258 Y116.728 E18.16111
G1 X78.079 Y114.395 E18.24805
G1 X76.862 Y112.152 E18.33292
G1 X75.59 Y109.955 E18.41736
G1 X74.257 Y107.796 E18.50175
G1 X72.875 Y105.694 E18.58542
G1 X71.402 Y103.586 E18.67096
G1 X71.248 Y103.377 E18.67959
G1 X70.569 Y102.43 E18.71835
G1 X70.063 Y101.652 E18.74922
G1 X69.989 Y101.526 E18.75408
G1 X69.811 Y101.211 E18.76611
G1 X69.658 Y100.928 E18.77681
G1 X69.264 Y100.115 E18.80686
G1 X68.924 Y99.211 E18.83898
G1 X68.852 Y98.988 E18.84678
G1 X68.606 Y98.085 E18.8779
G1 X68.593 Y98.027 E18.87988
G1 X68.437 Y97.156 E18.90931
G1 X68.28 Y95.989 E18.94848
G1 X65.82 Y74.565 E19.66572
G1 X65.804 Y74.424 E19.67044
G1 X65.731 Y73.699 E19.69468
G1 X65.681 Y72.568 E19.73233
G1 X65.685 Y72.195 E19.74474
G1 X65.734 Y71.293 E19.77478
G1 X65.855 Y70.447 E19.80321
G1 X65.915 Y70.123 E19.81417
G1 X65.992 Y69.744 E19.82703
G1 X66.023 Y69.606 E19.83174
G1 X66.26 Y68.735 E19.86176
G1 X66.573 Y67.888 E19.89179
G1 X66.762 Y67.466 E19.90717
G1 X66.933 Y67.106 E19.92043
G1 X67.18 Y66.618 E19.93862
G1 X67.642 Y65.842 E19.96866
G1 X68.429 Y64.796 E20.01219
G1 X68.751 Y64.421 E20.02863
G1 F2700 E15.02863
;MESH:?????????_?????????90.STL(1)
G0 F6000 X75.977 Y70.625
G0 X76.711 Y71.28
G0 X82.946 Y70.931
G0 X94.233 Y70.891
G0 X94.739 Y70.93
G0 X95.277 Y71.059
G0 X95.788 Y71.271
G0 X96.257 Y71.56
G0 X96.678 Y71.918
G0 X97.036 Y72.339
G0 X97.325 Y72.808
G0 X97.589 Y73.543
G0 X97.666 Y73.855
G0 X97.697 Y83.669
G0 X97.21 Y84.13
;TYPE:WALL-INNER
G1 F2700 E20.02863
G1 F1200 X97.388 Y84.066 E20.03493
G1 X97.411 Y84.057 E20.03575
G1 X97.412 Y84.13
G1 X97.21 Y84.13 E20.03661
G0 F6000 X97.697 Y83.669
G0 X97.666 Y73.855
G0 X97.399 Y72.431
G1 F1200 X97.247 Y72.185 E20.04623
G1 X97.029 Y71.928 E20.05743
G1 X96.863 Y71.733 E20.06595
G1 X96.654 Y71.555 E20.07508
G1 X96.411 Y71.349 E20.08568
G1 X96.145 Y71.185 E20.09607
G1 X96.41 Y71.185 E20.09755
G1 X96.729 Y71.185 E20.10523
G1 X97.397 Y71.184 E20.12745
G1 X97.398 Y71.846 E20.14947
G1 X97.398 Y72.184 E20.15744
G1 X97.399 Y72.431 E20.1587
G0 F6000 X96.257 Y71.56
G0 X95.788 Y71.271
G0 X95.277 Y71.059
G0 X94.739 Y70.93
G0 X94.233 Y70.891
G0 X82.946 Y70.931
G0 X82.306 Y71.03
G0 X81.601 Y71.225
G0 X80.813 Y71.557
G0 X80.165 Y71.924
G0 X79.563 Y72.361
G0 X79.013 Y72.864
G0 X78.527 Y73.428
G0 X78.107 Y74.04
G0 X77.911 Y74.413
G0 X76.943 Y76.77
G1 F1200 X76.865 Y76.085 E20.18163
G1 X76.798 Y75.502 E20.20115
G1 X76.472 Y72.664 E20.29616
G1 X76.474 Y72.615 E20.29779
G1 X76.474 Y72.338 E20.30701
G1 X76.539 Y72.018 E20.31787
G1 X76.683 Y71.731 E20.32855
G1 X76.893 Y71.495 E20.33905
G1 X77.154 Y71.325 E20.34941
G1 X77.452 Y71.226 E20.35986
G1 X77.737 Y71.196 E20.36939
G1 X80.18 Y71.195 E20.45064
G1 X80.696 Y71.195 E20.4678
G1 X81 Y71.194 E20.47792
G1 X80.697 Y71.322 E20.48016
G1 X80.248 Y71.576 E20.49166
G1 X80.023 Y71.704 E20.50027
G1 X79.398 Y72.159 E20.52598
G1 X78.826 Y72.682 E20.55176
G1 X78.32 Y73.269 E20.57754
G1 X77.884 Y73.905 E20.60318
G1 X77.522 Y74.591 E20.62898
G1 X77.24 Y75.311 E20.6547
G1 X77.191 Y75.496 E20.66107
G1 X77.043 Y76.064 E20.67529
G1 X76.943 Y76.77 E20.68106
G0 F6000 X77.294 Y78.602
G0 X81.739 Y96.63
G1 F1200 X81.482 Y96.63 E20.68961
G1 X81.481 Y96.63 E20.68965
G1 X80.365 Y96.631 E20.72676
G1 X80.164 Y96.618 E20.73346
G1 X79.85 Y96.532 E20.74429
G1 X79.559 Y96.361 E20.75552
G1 X79.342 Y96.14 E20.76582
G1 X79.174 Y95.838 E20.77731
G1 X79.093 Y95.5 E20.78887
G1 X77.594 Y82.439 E21.22614
G1 X77.593 Y82.438 E21.22618
G1 X77.277 Y79.674 E21.31871
G1 X77.985 Y82.365 E21.3651
G1 X81.674 Y96.381 E21.84715
G1 X81.739 Y96.63 E21.85232
G0 F6000 X82.258 Y97.03
;TYPE:WALL-OUTER
G1 F1200 X80.354 Y97.031 E21.91565
G1 X80.097 Y97.014 E21.92422
G1 X79.692 Y96.904 E21.93818
G1 X79.313 Y96.681 E21.9528
G1 X79.017 Y96.38 E21.96684
G1 X78.806 Y96 E21.9813
G1 X78.743 Y95.808 E21.98802
G1 X78.697 Y95.557 E21.99651
G1 X76.071 Y72.675 E22.76256
G1 X76.074 Y72.606 E22.76486
G1 X76.074 Y72.297 E22.77514
G1 X76.158 Y71.886 E22.78909
G1 X76.347 Y71.507 E22.80317
G1 X76.631 Y71.189 E22.81736
G1 X76.981 Y70.961 E22.83125
G1 X77.366 Y70.833 E22.84474
G1 X77.714 Y70.796 E22.85638
G1 X97.797 Y70.784 E23.52435
G1 X97.812 Y84.53 E23.98154
G1 X94.918 Y84.531 E24.0778
G1 X97.565 Y83.577 E24.17138
G1 X97.565 Y74.37 E24.4776
